X: 61
T:Miss Singleton's Reel (#257)
M:4/4
L:1/8
S:Sergt. James O'Neill's manuscripts
R:Reel
K:G
e|dBBA GEEG|DB,DE D3 e|dBBA GEEG|DGBG A3 e|
dBBA GEEG|DB,DE D3 e|dBBA GEEG|DGBG A2 z||
e|dBBe dBBe|dBBd e2 eg|dBBd efed|BAGB A2 AB|
deBe deBe|deBc d2 ef|gefd ecdB|AGED G3||

